packages/core/src/svgs/equal.svg

<svg width="24" height="24" viewBox="0 0 24 24" fill="none" xmlns="http://www.w3.org/2000/svg">
<g clip-path="url(#clip0_31_10008)">
<path d="M0 0H24V24H0V0Z" fill="url(#paint0_linear_31_10008)"/>
<path fill-rule="evenodd" clip-rule="evenodd" d="M12.0001 18.4286C13.705 18.4286 15.3402 17.7513 16.5458 16.5458C17.7513 15.3402 18.4286 13.705 18.4286 12.0001C18.4286 10.2951 17.7513 8.65997 16.5458 7.45438C15.3402 6.24879 13.705 5.5715 12.0001 5.5715C10.2951 5.5715 8.65997 6.24879 7.45438 7.45438C6.24879 8.65997 5.5715 10.2951 5.5715 12.0001C5.5715 13.705 6.24879 15.3402 7.45438 16.5458C8.65997 17.7513 10.2951 18.4286 12.0001 18.4286ZM12.0001 19.2858C13.9324 19.2858 15.7855 18.5182 17.1518 17.1518C18.5182 15.7855 19.2858 13.9324 19.2858 12.0001C19.2858 10.0678 18.5182 8.21463 17.1518 6.84829C15.7855 5.48196 13.9324 4.71436 12.0001 4.71436C10.0678 4.71436 8.21463 5.48196 6.84829 6.84829C5.48196 8.21463 4.71436 10.0678 4.71436 12.0001C4.71436 13.9324 5.48196 15.7855 6.84829 17.1518C8.21463 18.5182 10.0678 19.2858 12.0001 19.2858Z" fill="url(#paint1_linear_31_10008)"/>
<path d="M12.6428 7.92878C11.2714 7.92878 8.4985 8.6445 7.28564 9.00021L9.4285 6.64307V7.28592C9.64279 7.14449 10.5428 6.85735 12.4285 6.85735C14.3142 6.85735 16.0714 8.2845 16.7142 9.00021H16.2856C15.6428 8.6445 14.0142 7.92878 12.6428 7.92878Z" fill="url(#paint2_linear_31_10008)"/>
<path d="M11.3571 16.0714C12.7285 16.0714 15.5014 15.3557 16.7142 15L14.5714 17.3571V16.7143C14.3571 16.8557 13.4571 17.1429 11.5714 17.1429C9.68564 17.1429 7.9285 15.7157 7.28564 15H7.71422C8.35707 15.3557 9.98564 16.0714 11.3571 16.0714Z" fill="url(#paint3_linear_31_10008)"/>
<path d="M14.5716 9H10.2859C10.0585 9 9.84051 9.09031 9.67976 9.25105C9.51902 9.4118 9.42871 9.62981 9.42871 9.85714V13.7143C9.42871 14.7429 10.2859 15 10.7144 15H14.5716C14.5716 13.9714 13.7144 13.7143 13.2859 13.7143H12.4287C12.0001 13.7143 11.143 13.7143 11.143 12C11.143 10.6286 12.0001 10.2857 12.4287 10.2857H13.0716C14.2716 10.2857 14.5716 9.42857 14.5716 9Z" fill="url(#paint4_linear_31_10008)"/>
<path d="M10.2859 13.7141C9.77157 13.7141 9.50157 13.1441 9.42871 12.8569V13.7141C9.42871 14.7426 10.2859 14.9998 10.7144 14.9998H14.5716C14.5716 13.9712 13.7144 13.7141 13.2859 13.7141H10.2859Z" fill="url(#paint5_linear_31_10008)"/>
<path d="M10.2859 10.2857C9.77157 10.2857 9.643 10.5729 9.643 10.7143C9.643 11.4 10.3587 11.5714 10.7144 11.5714H13.2859C14.3144 11.5714 14.5716 12.4286 14.5716 12.8571H10.2859C9.77157 12.8571 9.50157 12.2871 9.42871 12V9.85714C9.42871 9.17143 9.99871 9 10.2859 9H14.5716C14.5716 10.0286 13.7144 10.2857 13.2859 10.2857H10.2859Z" fill="url(#paint6_linear_31_10008)"/>
</g>
<defs>
<linearGradient id="paint0_linear_31_10008" x1="4.46571" y1="4.16143" x2="29.2071" y2="32.58" gradientUnits="userSpaceOnUse">
<stop stop-color="#1A1E21"/>
<stop offset="1" stop-color="#06060A"/>
</linearGradient>
<linearGradient id="paint1_linear_31_10008" x1="18.8572" y1="12.6429" x2="4.71436" y2="12.8572" gradientUnits="userSpaceOnUse">
<stop stop-color="#2DFAEE"/>
<stop offset="1" stop-color="#015BD5"/>
</linearGradient>
<linearGradient id="paint2_linear_31_10008" x1="15.8571" y1="7.7145" x2="7.9285" y2="8.35735" gradientUnits="userSpaceOnUse">
<stop stop-color="#2AF0ED"/>
<stop offset="1" stop-color="#056BD7"/>
</linearGradient>
<linearGradient id="paint3_linear_31_10008" x1="15.4285" y1="16.0714" x2="8.99993" y2="15.6429" gradientUnits="userSpaceOnUse">
<stop stop-color="#27E6EB"/>
<stop offset="1" stop-color="#0569D7"/>
</linearGradient>
<linearGradient id="paint4_linear_31_10008" x1="12.0087" y1="9" x2="12.0087" y2="15" gradientUnits="userSpaceOnUse">
<stop stop-color="#22D3E8"/>
<stop offset="1" stop-color="#0A7CDA"/>
</linearGradient>
<linearGradient id="paint5_linear_31_10008" x1="14.3573" y1="14.1426" x2="9.643" y2="14.1426" gradientUnits="userSpaceOnUse">
<stop stop-color="#29EEEC"/>
<stop offset="1" stop-color="#035FD5"/>
</linearGradient>
<linearGradient id="paint6_linear_31_10008" x1="14.3573" y1="11.5714" x2="9.42871" y2="11.5714" gradientUnits="userSpaceOnUse">
<stop stop-color="#28EAEC"/>
<stop offset="1" stop-color="#015BD5"/>
</linearGradient>
<clipPath id="clip0_31_10008">
<rect width="24" height="24" fill="white"/>
</clipPath>
</defs>
</svg>

<svg xmlns="http://www.w3.org/2000/svg" width="24" height="24" fill="none" viewBox="0 0 24 24"><g clip-path="url(#a)"><path fill="url(#b)" d="M0 0h24v24H0z"/><path fill="url(#c)" fill-rule="evenodd" d="M12 18.429A6.429 6.429 0 1 0 12 5.57a6.429 6.429 0 0 0 0 12.858m0 .857a7.285 7.285 0 1 0 0-14.57 7.285 7.285 0 0 0 0 14.57" clip-rule="evenodd"/><path fill="url(#d)" d="M12.643 7.929c-1.372 0-4.145.716-5.357 1.071l2.143-2.357v.643c.214-.142 1.114-.429 3-.429S16.07 8.284 16.714 9h-.428c-.643-.355-2.272-1.071-3.643-1.071"/><path fill="url(#e)" d="M11.357 16.071c1.372 0 4.144-.715 5.357-1.071l-2.143 2.357v-.643c-.214.142-1.114.429-3 .429S7.93 15.716 7.286 15h.428c.643.356 2.272 1.071 3.643 1.071"/><path fill="url(#f)" d="M14.572 9h-4.286a.857.857 0 0 0-.857.857v3.857c0 1.029.857 1.286 1.285 1.286h3.858c0-1.029-.858-1.286-1.286-1.286h-.857c-.429 0-1.286 0-1.286-1.714 0-1.371.857-1.714 1.286-1.714h.643c1.2 0 1.5-.857 1.5-1.286"/><path fill="url(#g)" d="M10.286 13.714c-.514 0-.784-.57-.857-.857v.857c0 1.029.857 1.286 1.285 1.286h3.858c0-1.029-.858-1.286-1.286-1.286z"/><path fill="url(#h)" d="M10.286 10.286c-.514 0-.643.287-.643.428 0 .686.716.857 1.071.857h2.572c1.028 0 1.286.858 1.286 1.286h-4.286c-.514 0-.784-.57-.857-.857V9.857c0-.686.57-.857.857-.857h4.286c0 1.029-.858 1.286-1.286 1.286z"/></g><defs><linearGradient id="b" x1="4.466" x2="29.207" y1="4.161" y2="32.58" gradientUnits="userSpaceOnUse"><stop stop-color="#1A1E21"/><stop offset="1" stop-color="#06060A"/></linearGradient><linearGradient id="c" x1="18.857" x2="4.714" y1="12.643" y2="12.857" gradientUnits="userSpaceOnUse"><stop stop-color="#2DFAEE"/><stop offset="1" stop-color="#015BD5"/></linearGradient><linearGradient id="d" x1="15.857" x2="7.928" y1="7.715" y2="8.357" gradientUnits="userSpaceOnUse"><stop stop-color="#2AF0ED"/><stop offset="1" stop-color="#056BD7"/></linearGradient><linearGradient id="e" x1="15.428" x2="9" y1="16.071" y2="15.643" gradientUnits="userSpaceOnUse"><stop stop-color="#27E6EB"/><stop offset="1" stop-color="#0569D7"/></linearGradient><linearGradient id="f" x1="12.009" x2="12.009" y1="9" y2="15" gradientUnits="userSpaceOnUse"><stop stop-color="#22D3E8"/><stop offset="1" stop-color="#0A7CDA"/></linearGradient><linearGradient id="g" x1="14.357" x2="9.643" y1="14.143" y2="14.143" gradientUnits="userSpaceOnUse"><stop stop-color="#29EEEC"/><stop offset="1" stop-color="#035FD5"/></linearGradient><linearGradient id="h" x1="14.357" x2="9.429" y1="11.571" y2="11.571" gradientUnits="userSpaceOnUse"><stop stop-color="#28EAEC"/><stop offset="1" stop-color="#015BD5"/></linearGradient><clipPath id="a"><path fill="#fff" d="M0 0h24v24H0z"/></clipPath></defs></svg>
